X: 1354
T: An Pólca Síneach
R: polka
M: 2/4
K: Dmajor
zA AF|D2DD|B,D FB,|D2 DD|
B,D FB,|D2 DD|FA AF|E4|
zA AF|D2DD|B,D FB,|D2 DD|
FD AD|BF AD|FD EC|D4:|
K:A
E2 CE|AE EE|BE EE|cE EE|
dE EE|Ed dd|cB GB|A4|
EE EE|EA AA|BB AB|c2 A2|
EE EE|Ed dd|cB GB|A4||

